styles/1/Numix/128x128/actions/default-document-open.svg

<?xml version="1.0" encoding="UTF-8" standalone="no"?>
<svg
   xmlns:dc="http://purl.org/dc/elements/1.1/"
   xmlns:cc="http://creativecommons.org/ns#"
   xmlns:rdf="http://www.w3.org/1999/02/22-rdf-syntax-ns#"
   xmlns:svg="http://www.w3.org/2000/svg"
   xmlns="http://www.w3.org/2000/svg"
   xmlns:sodipodi="http://sodipodi.sourceforge.net/DTD/sodipodi-0.dtd"
   xmlns:inkscape="http://www.inkscape.org/namespaces/inkscape"
   width="128px"
   height="128px"
   viewBox="0 0 128 128"
   version="1.1"
   id="svg2"
   inkscape:version="0.91 r"
   sodipodi:docname="blue-document-open.svg">
  <metadata
     id="metadata25">
    <rdf:RDF>
      <cc:Work
         rdf:about="">
        <dc:format>image/svg+xml</dc:format>
        <dc:type
           rdf:resource="http://purl.org/dc/dcmitype/StillImage" />
      </cc:Work>
    </rdf:RDF>
  </metadata>
  <defs
     id="defs23" />
  <sodipodi:namedview
     pagecolor="#ffffff"
     bordercolor="#666666"
     borderopacity="1"
     objecttolerance="10"
     gridtolerance="10"
     guidetolerance="10"
     inkscape:pageopacity="0"
     inkscape:pageshadow="2"
     inkscape:window-width="841"
     inkscape:window-height="480"
     id="namedview21"
     showgrid="false"
     inkscape:zoom="1.84375"
     inkscape:cx="64"
     inkscape:cy="64"
     inkscape:window-x="0"
     inkscape:window-y="30"
     inkscape:window-maximized="0"
     inkscape:current-layer="svg2" />
  <path
     inkscape:connector-curvature="0"
     id="path5"
     d="M 12.125,20 C 9.867188,20.222656 7.964844,22.355469 8,24.625 l 0,78.75 c -0.027344,2.42969 2.195312,4.65234 4.625,4.625 l 102.75,0 c 2.42969,0.0273 4.65234,-2.19531 4.625,-4.625 l 0,-70.75 C 120.0273,30.199219 117.80469,27.972656 115.375,28 L 76,28 76,24.625 C 76.027344,22.238281 73.886719,20.039062 71.5,20 l -58.875,0 c -0.164062,-0.0078 -0.332031,-0.0078 -0.5,0 z m 0,0"
     style="fill:#c4905e;fill-opacity:1;fill-rule:nonzero;stroke:none;opacity:0.4" />
  <path
     inkscape:connector-curvature="0"
     id="path7"
     d="m 16,16 96,0 0,52 -96,0 z m 0,0"
     style="fill:#e8e6cf;fill-opacity:1;fill-rule:nonzero;stroke:none" />
  <path
     inkscape:connector-curvature="0"
     id="path9"
     d="m 24,58 80,0 0,4 -80,0 z m 0,0"
     style="fill:#787866;fill-opacity:1;fill-rule:nonzero;stroke:none" />
  <path
     inkscape:connector-curvature="0"
     id="path11"
     d="M 12.125,56 C 9.867188,56.222656 7.964844,58.355469 8,60.625 l 0,42.75 c -0.027344,2.42969 2.195312,4.65234 4.625,4.625 l 102.75,0 c 2.42969,0.0273 4.65234,-2.19531 4.625,-4.625 l 0,-34.75 C 120.0273,66.199219 117.80469,63.972656 115.375,64 L 76,64 76,60.625 C 76.027344,58.238281 73.886719,56.039062 71.5,56 l -58.875,0 c -0.164062,-0.0078 -0.332031,-0.0078 -0.5,0 z m 0,0"
     style="fill:#c4905e;fill-opacity:1;fill-rule:nonzero;stroke:none" />
  <path
     inkscape:connector-curvature="0"
     id="path13"
     d="m 24,34 80,0 0,4 -80,0 z m 0,0"
     style="fill:#787866;fill-opacity:1;fill-rule:nonzero;stroke:none" />
  <path
     inkscape:connector-curvature="0"
     id="path15"
     d="m 24,42 80,0 0,4 -80,0 z m 0,0"
     style="fill:#787866;fill-opacity:1;fill-rule:nonzero;stroke:none" />
  <path
     inkscape:connector-curvature="0"
     id="path17"
     d="m 24,50 80,0 0,4 -80,0 z m 0,0"
     style="fill:#787866;fill-opacity:1;fill-rule:nonzero;stroke:none" />
  <path
     inkscape:connector-curvature="0"
     id="path19"
     d="m 24,26 80,0 0,4 -80,0 z m 0,0"
     style="fill:#787866;fill-opacity:1;fill-rule:nonzero;stroke:none" />
</svg>

<svg xmlns="http://www.w3.org/2000/svg" xmlns:xlink="http://www.w3.org/1999/xlink" width="128px" height="128px" viewBox="0 0 128 128" version="1.1">
<g id="surface1">
<path style=" stroke:none;fill-rule:nonzero;fill:rgb(76.470588%,55.686275%,36.470588%);fill-opacity:0.4;" d="M 12.125 20 C 9.867188 20.222656 7.964844 22.355469 8 24.625 L 8 103.375 C 7.972656 105.804688 10.195312 108.027344 12.625 108 L 115.375 108 C 117.804688 108.027344 120.027344 105.804688 120 103.375 L 120 32.625 C 120.027344 30.199219 117.804688 27.972656 115.375 28 L 76 28 L 76 24.625 C 76.027344 22.238281 73.886719 20.039062 71.5 20 L 12.625 20 C 12.460938 19.992188 12.292969 19.992188 12.125 20 Z M 12.125 20 "/>
<path style=" stroke:none;fill-rule:nonzero;fill:rgb(91.764706%,90.588235%,81.960784%);fill-opacity:1;" d="M 16 16 L 112 16 L 112 68 L 16 68 Z M 16 16 "/>
<path style=" stroke:none;fill-rule:nonzero;fill:rgb(47.843137%,47.843137%,40.784314%);fill-opacity:1;" d="M 24 58 L 104 58 L 104 62 L 24 62 Z M 24 58 "/>
<path style=" stroke:none;fill-rule:nonzero;fill:rgb(76.862745%,56.470588%,36.862745%);fill-opacity:1;" d="M 12.125 56 C 9.867188 56.222656 7.964844 58.355469 8 60.625 L 8 103.375 C 7.972656 105.804688 10.195312 108.027344 12.625 108 L 115.375 108 C 117.804688 108.027344 120.027344 105.804688 120 103.375 L 120 68.625 C 120.027344 66.199219 117.804688 63.972656 115.375 64 L 76 64 L 76 60.625 C 76.027344 58.238281 73.886719 56.039062 71.5 56 L 12.625 56 C 12.460938 55.992188 12.292969 55.992188 12.125 56 Z M 12.125 56 "/>
<path style=" stroke:none;fill-rule:nonzero;fill:rgb(47.843137%,47.843137%,40.784314%);fill-opacity:1;" d="M 24 34 L 104 34 L 104 38 L 24 38 Z M 24 34 "/>
<path style=" stroke:none;fill-rule:nonzero;fill:rgb(47.843137%,47.843137%,40.784314%);fill-opacity:1;" d="M 24 42 L 104 42 L 104 46 L 24 46 Z M 24 42 "/>
<path style=" stroke:none;fill-rule:nonzero;fill:rgb(47.843137%,47.843137%,40.784314%);fill-opacity:1;" d="M 24 50 L 104 50 L 104 54 L 24 54 Z M 24 50 "/>
<path style=" stroke:none;fill-rule:nonzero;fill:rgb(47.843137%,47.843137%,40.784314%);fill-opacity:1;" d="M 24 26 L 104 26 L 104 30 L 24 30 Z M 24 26 "/>
</g>
</svg>
